!! 00000] TT[WS
!!!OTL: Da qiuqian
!!!ARE: Asia, China,ÿShanxi Zuoquan
!! Ethnic Group: Han
!! WI, 125
!!!SCT: J0149
!!!YEM: Copyright 1995, estate of Helmut Schaffrath.
**kern
*ICvox
*Ivox
*M2/4
*k[b-e-]
*B-:
{8.ccc
16ccc
8bb-
8ddd
=1
8.ccc
16bb-
4ccc
=2
8.ddd
16fff
8ccc
8bb-
=3
8.gg
16ff
4gg}
=4
{8bb-
4bb-
8ccc
=5
8ddd
8ccc
8ddd
8aa
=6
8gg
16gg
16gg
8aa
8gg
=7
8ff
8dd
4ff}
=8
{16dd
16ff
16dd
16ff
4gg
=9
4ccc
8ddd
8ccc
=10
8bb-
8ddd
8gg
8ff
=11
4.ee-
8ff
=12
8gg
16gg
16bb-
8ff
8ee-
=13
2cc}
==
!!!AGN: Xiaodiao. Qingge
!!!ONB: ESAC (Essen Associative Code) Database: CHINA
!!!AMT: simple duple
!!!AIN: vox
!!!EED: Helmut Schaffrath
!!!EEV: 1.0
*-
